X: 1
T: Funky Spider, The
M: 6/8
L: 1/8
R: jig
K: Bmin
BBB FBe|dcA BBB|FBd f2a|efe dcA|
BBB FBe|dcA B2F|E2F EF^G|A2F EFA|
BBB FBe|-edc BBB|FB/c/d fdg|-gef edc|
BBB FBe|dcA B2F|E2F EF^G|A2F Ec/d/f|
|:g2e a2g|fff def|efe ABc|d2B Ge/f/^g|aec Acg|
fdB ~G3|F/G/AB ABc|1dcd e2f:|2dcd edc||
